Papirus/64x64/apps/somiibo.svg

<?xml version="1.0" encoding="UTF-8" standalone="no"?>
<svg
   id="_图层_1"
   version="1.1"
   viewBox="0 0 64 64" width="64" height="64"
   sodipodi:docname="somiibo.svg"
   xml:space="preserve"
   inkscape:version="1.4 (e7c3feb100, 2024-10-09)"
   xmlns:inkscape="http://www.inkscape.org/namespaces/inkscape"
   xmlns:sodipodi="http://sodipodi.sourceforge.net/DTD/sodipodi-0.dtd"
   xmlns:xlink="http://www.w3.org/1999/xlink"
   xmlns="http://www.w3.org/2000/svg"
   xmlns:svg="http://www.w3.org/2000/svg"><sodipodi:namedview
     id="namedview26"
     pagecolor="#505050"
     bordercolor="#eeeeee"
     borderopacity="1"
     inkscape:showpageshadow="0"
     inkscape:pageopacity="0"
     inkscape:pagecheckerboard="0"
     inkscape:deskcolor="#505050"
     inkscape:zoom="10.6875"
     inkscape:cx="32"
     inkscape:cy="32"
     inkscape:window-width="1920"
     inkscape:window-height="939"
     inkscape:window-x="0"
     inkscape:window-y="34"
     inkscape:window-maximized="1"
     inkscape:current-layer="_图层_1" /><!-- Generator: Adobe Illustrator 29.0.1, SVG Export Plug-In . SVG Version: 2.1.0 Build 192)  --><defs
     id="defs6"><style
       id="style1">
      .st0 {
        fill-opacity: .5;
      }

      .st0, .st1, .st2, .st3, .st4, .st5, .st6, .st7 {
        fill: #fff;
      }

      .st8 {
        fill: #133c9a;
      }

      .st2, .st9 {
        display: none;
      }

      .st3 {
        fill-opacity: .2;
      }

      .st4 {
        fill-opacity: .9;
      }

      .st10 {
        fill: #3370ff;
      }

      .st11 {
        fill: url(#_未命名的渐变_3);
      }

      .st12 {
        fill: url(#_未命名的渐变);
      }

      .st5 {
        fill-opacity: .3;
      }

      .st6 {
        fill-opacity: 0;
      }

      .st7 {
        fill-opacity: .7;
      }

      .st13 {
        fill: #00d6b9;
      }

      .st14 {
        fill: url(#_未命名的渐变_2);
      }
    </style><radialGradient
       id="_未命名的渐变"
       data-name="未命名的渐变"
       cx="123.9"
       cy="-40.2"
       fx="123.9"
       fy="-40.2"
       r="59.4"
       gradientTransform="translate(-26.8 25.5) scale(.6 -.7)"
       gradientUnits="userSpaceOnUse"><stop
         offset="0"
         stop-color="#db202e"
         id="stop1" /><stop
         offset="1"
         stop-color="#e01b24"
         id="stop2" /></radialGradient><radialGradient
       id="_未命名的渐变_2"
       data-name="未命名的渐变 2"
       cx="67.6"
       cy="26.8"
       fx="67.6"
       fy="26.8"
       r="105.2"
       gradientTransform="translate(-26.6 25.3) scale(.6 -.7)"
       gradientUnits="userSpaceOnUse"><stop
         offset="0"
         stop-color="#ffb648"
         id="stop3" /><stop
         offset="1"
         stop-color="#ff7800"
         stop-opacity="0"
         id="stop4" /></radialGradient><radialGradient
       id="_未命名的渐变_3"
       data-name="未命名的渐变 3"
       cx="61.7"
       cy="18.6"
       fx="61.7"
       fy="18.6"
       r="68"
       gradientTransform="translate(-26.8 25.8) scale(.6 -.7)"
       gradientUnits="userSpaceOnUse"><stop
         offset="0"
         stop-color="#c64600"
         id="stop5" /><stop
         offset="1"
         stop-color="#a51d2d"
         id="stop6" /></radialGradient><linearGradient
       id="linearGradient1261"><stop
         style="stop-color:#4f4f4f"
         offset="0"
         id="stop1-7" /><stop
         style="stop-color:#3f3f3f"
         offset="1"
         id="stop2-0" /></linearGradient><linearGradient
       id="linearGradient1263"
       x1="34.241"
       x2="37.169"
       y1="38.945"
       y2="30.342"
       gradientTransform="matrix(1.3919157,0,0,1.3888889,-1.321022,-0.4865665)"
       gradientUnits="userSpaceOnUse"
       xlink:href="#linearGradient1261" /></defs><path
     class="st1"
     d="M47.5,64.1H13.8c-7.6,0-13.8-6.3-13.8-13.8V13.7C0,6.2,6.2,0,13.7,0h36.6c7.5,0,13.7,6.2,13.7,13.7v36.6c0,7.5-6.2,13.7-13.7,13.7h-2.9.1Z"
     id="path6"
     style="fill:#44a2f8;fill-opacity:1" /><g
     id="g26"
     transform="matrix(1.13868,0,0,1.1346055,-4.5781119,-4.5004104)"><path
       style="opacity:0.2"
       d="m 32.5,12 a 4.5,4.5 0 0 0 -4.5,4.5 4.5,4.5 0 0 0 3,4.236328 v 3.314453 A 14,14 0 0 0 18,38 14,14 0 0 0 32,52 14,14 0 0 0 46,38 14,14 0 0 0 40.091797,26.595703 l 2.160156,-2.775391 A 4.5,4.5 0 0 0 43.5,24 4.5,4.5 0 0 0 48,19.5 4.5,4.5 0 0 0 43.5,15 4.5,4.5 0 0 0 39,19.5 a 4.5,4.5 0 0 0 0.8125,2.570312 l -2.371094,3.046876 A 14,14 0 0 0 34,24.158203 V 20.736328 A 4.5,4.5 0 0 0 37,16.5 4.5,4.5 0 0 0 32.5,12 Z M 32,30 a 8,8 0 0 1 8,8 8,8 0 0 1 -8,8 8,8 0 0 1 -8,-8 8,8 0 0 1 8,-8 z m 0,3 a 5,5 0 0 0 -5,5 5,5 0 0 0 5,5 5,5 0 0 0 5,-5 A 5,5 0 0 0 35.515625,34.449219 2.5,2.5 0 0 1 35.75,35.5 2.5,2.5 0 0 1 33.25,38 2.5,2.5 0 0 1 30.75,35.5 2.5,2.5 0 0 1 32.724609,33.058594 5,5 0 0 0 32,33 Z"
       id="path2" /><path
       style="fill:#ffffff"
       d="m 32.5,11 a 4.5,4.5 0 0 0 -4.5,4.5 4.5,4.5 0 0 0 3,4.236328 v 3.314453 A 14,14 0 0 0 18,37 14,14 0 0 0 32,51 14,14 0 0 0 46,37 14,14 0 0 0 40.091797,25.595703 l 2.160156,-2.775391 A 4.5,4.5 0 0 0 43.5,23 4.5,4.5 0 0 0 48,18.5 4.5,4.5 0 0 0 43.5,14 4.5,4.5 0 0 0 39,18.5 a 4.5,4.5 0 0 0 0.8125,2.570312 l -2.371094,3.046876 A 14,14 0 0 0 34,23.158203 V 19.736328 A 4.5,4.5 0 0 0 37,15.5 4.5,4.5 0 0 0 32.5,11 Z M 32,29 a 8,8 0 0 1 8,8 8,8 0 0 1 -8,8 8,8 0 0 1 -8,-8 8,8 0 0 1 8,-8 z m 0,3 a 5,5 0 0 0 -5,5 5,5 0 0 0 5,5 5,5 0 0 0 5,-5 A 5,5 0 0 0 35.515625,33.449219 2.5,2.5 0 0 1 35.75,34.5 2.5,2.5 0 0 1 33.25,37 2.5,2.5 0 0 1 30.75,34.5 2.5,2.5 0 0 1 32.724609,32.058594 5,5 0 0 0 32,32 Z"
       id="path3" /></g></svg>

<svg xmlns="http://www.w3.org/2000/svg" width="64" height="64" version="1">
 <circle style="opacity:0.2" cx="32" cy="33" r="28"/>
 <circle style="fill:#44a2f8" cx="32" cy="32" r="28"/>
 <path style="opacity:0.2" d="m 32.5,12 a 4.5,4.5 0 0 0 -4.5,4.5 4.5,4.5 0 0 0 3,4.236328 v 3.314453 A 14,14 0 0 0 18,38 14,14 0 0 0 32,52 14,14 0 0 0 46,38 14,14 0 0 0 40.091797,26.595703 l 2.160156,-2.775391 A 4.5,4.5 0 0 0 43.5,24 4.5,4.5 0 0 0 48,19.5 4.5,4.5 0 0 0 43.5,15 4.5,4.5 0 0 0 39,19.5 a 4.5,4.5 0 0 0 0.8125,2.570312 l -2.371094,3.046876 A 14,14 0 0 0 34,24.158203 V 20.736328 A 4.5,4.5 0 0 0 37,16.5 4.5,4.5 0 0 0 32.5,12 Z M 32,30 a 8,8 0 0 1 8,8 8,8 0 0 1 -8,8 8,8 0 0 1 -8,-8 8,8 0 0 1 8,-8 z m 0,3 a 5,5 0 0 0 -5,5 5,5 0 0 0 5,5 5,5 0 0 0 5,-5 A 5,5 0 0 0 35.515625,34.449219 2.5,2.5 0 0 1 35.75,35.5 2.5,2.5 0 0 1 33.25,38 2.5,2.5 0 0 1 30.75,35.5 2.5,2.5 0 0 1 32.724609,33.058594 5,5 0 0 0 32,33 Z"/>
 <path style="fill:#ffffff" d="M 32.5 11 A 4.5 4.5 0 0 0 28 15.5 A 4.5 4.5 0 0 0 31 19.736328 L 31 23.050781 A 14 14 0 0 0 18 37 A 14 14 0 0 0 32 51 A 14 14 0 0 0 46 37 A 14 14 0 0 0 40.091797 25.595703 L 42.251953 22.820312 A 4.5 4.5 0 0 0 43.5 23 A 4.5 4.5 0 0 0 48 18.5 A 4.5 4.5 0 0 0 43.5 14 A 4.5 4.5 0 0 0 39 18.5 A 4.5 4.5 0 0 0 39.8125 21.070312 L 37.441406 24.117188 A 14 14 0 0 0 34 23.158203 L 34 19.736328 A 4.5 4.5 0 0 0 37 15.5 A 4.5 4.5 0 0 0 32.5 11 z M 32 29 A 8 8 0 0 1 40 37 A 8 8 0 0 1 32 45 A 8 8 0 0 1 24 37 A 8 8 0 0 1 32 29 z M 32 32 A 5 5 0 0 0 27 37 A 5 5 0 0 0 32 42 A 5 5 0 0 0 37 37 A 5 5 0 0 0 35.515625 33.449219 A 2.5 2.5 0 0 1 35.75 34.5 A 2.5 2.5 0 0 1 33.25 37 A 2.5 2.5 0 0 1 30.75 34.5 A 2.5 2.5 0 0 1 32.724609 32.058594 A 5 5 0 0 0 32 32 z"/>
 <path style="fill:#ffffff;opacity:0.2" d="M 32 4 A 28 28 0 0 0 4 32 A 28 28 0 0 0 4.0214844 32.585938 A 28 28 0 0 1 32 5 A 28 28 0 0 1 59.978516 32.414062 A 28 28 0 0 0 60 32 A 28 28 0 0 0 32 4 z"/>
</svg>
